X: 20843
T: Johnny's Welcome Home
R: reel
M: 4/4
K: Adorian
AE ~E2 cE ~E2|GFEF GFED|(3EFG AB cded|cBcd e2 fg|
abaf gbge|dBGB ABcd|(3efg ed cABG|AGEG A2 ea||
agea agea|agef g2 fg|agbg aged|cBcd e2 fg|
abaf gbge|dBGB ABcd|(3efg ed cABG|AGEG AdcB||

